public/avatar/hat/274.svg

<svg xmlns:xlink="http://www.w3.org/1999/xlink" height="92.9" width="100.7" xmlns="http://www.w3.org/2000/svg"><g transform="translate(38.65 49.75)"><use height="25.95" transform="translate(-18.6 -11.6)" width="32.7" xlink:href="#a"/><use height="9.3" transform="translate(-13.5 3.6)" width="26.7" xlink:href="#b"/><use height="17.55" transform="translate(-16.5 -10.2)" width="29.3" xlink:href="#c"/><use height="17.55" transform="translate(-16.55 -10.25)" width="29.3" xlink:href="#d"/><use height="8.6" transform="translate(-13.5 4.25)" width="26.6" xlink:href="#e"/><use height="5.85" transform="translate(-11.65 3.6)" width="22.95" xlink:href="#f"/><use height="16.9" transform="translate(-16.55 -10.3)" width="28.75" xlink:href="#g"/></g><defs><use height="25.95" width="32.7" xlink:href="#h" id="a"/><use height="9.3" width="26.7" xlink:href="#i" id="b"/><use height="17.55" width="29.3" xlink:href="#j" id="c"/><use height="17.55" width="29.3" xlink:href="#k" id="d"/><use height="8.6" width="26.6" xlink:href="#l" id="e"/><use height="5.85" width="22.95" xlink:href="#m" id="f"/><use height="16.9" width="28.75" xlink:href="#n" id="g"/><path d="m1.35-3.25 1.1 1 .4-1.35L4-2.6l.1-1.5.95.85.65-1.15 1.05.75.3-.9 1.05.8.65-.9.85.8.45-.65.65.9.55-.5.4.15.85 1.85q.7 1.6.85 3.25L11.45-.2l-.55-2.95v.6l-.15-.55.05 2.4-.05 1.45.05.3-.45 3.6Q3.25 1.45-.55-2.2l.4-.65.45 1.2q.7-.65 1.05-1.6m-10.2 2.1.5.45q-1.25 2.6-5 5.2.15-1.7.85-3.55l.1-.15 1.15-1.15.3.95.9-1.35.65.7.55-1.1" fill="#ffb800" fill-rule="evenodd" transform="translate(13.35 4.65)" id="i"/><path d="m6.75-7.85.7-.3q.55-.25.85-.6l.05.05.2 1.1 1.05-.65v.2l.25.15.9.05.15 1.3.95-.4v.15l.35.3.4.15.1.45q.2.45 1.05.7l-.15.5.1.75.4.05-.85.7 1 .6.35.4-1.45 1.1 1.3.6.2.2-.65.2v.65l.25.65-.4.65-.05.45.25.3.4.35-.45.85.3.45-.4.05-.45.5-.15-.05-.5-.25-.3.25-.7-1.25-.65 1-.8-.7-.85.95-.6-1.35-.85 1.2-.05.05-.85-.6-.65 1-1.05-.95L5 5.35l-.95-.85-.35 1.3-.85-1.15-.55 1.4-.1.2-.65-.75-1.1 1.3-.05-.05-.5-.65-.65.45-.2.1.05-1.4-1.5 1.45-.4-.35-.8.55-.5-.6-.7.7-.25.35-.75-1.2-.8 1.3-.05.15-.4-.75-1.25 1.9-.6-.15-.25-.8-.55.5.05-.25-1.45.05 1.2-1.4-2.5.15 1.45-1.5-1.95.1 1.2-1.65-1.9.25.7-1.05-1.4-.1 1.25-.55q-.7-.65-1.25-.8h1.05l-1-.95.95-.1-1.35-1.8.1.05 1.25.3.1-1.15-.25-.7h.25l1.4.75-.15-2.25v-.05l1.75 1.05.05-1.75 1.3.2.3-1.15-.05-.35.05-.1 1.6 1.35.4-1.3.05-.3.95 1.15.45-2.05.4.3 1.2 1.1.3-1.5.25-.7.4.55.85.9.5-1.1.1-.15.45.45.7.3.9-1.3.35 1.3L2.85-8.8l.25.5h.55q.35 0 .8-.35l.05.05.45.65.6-.2q.55-.2.8-.5l.4.8" fill="#b3effc" fill-rule="evenodd" transform="translate(14.65 8.8)" id="j"/><path d="m-4.45 5.6.5-.6.35 1.95-.45-.65-1 1.05q.05-1 .6-1.75M6.75-7.85l.75-.3.85-.6v.05l.2 1.15L9.6-8.2l.05.15.25.2q.3.2.85 0l.15 1.3.95-.35.05.15.3.25q.05.05.4.15l.1.45q.2.45 1.1.7l-.15.5.05.8.4.05-.85.65 1 .65.35.35-1.4 1.15 1.25.55.2.2-.15.05-.45.2V.6l.25.6-.4.65-.05.45.2.3.45.4-.5.85.3.4-.4.05-.45.5-.65-.25-.15-.1-.1-1.1 1.1.45q-.4-1.1-.85-1.2l.65-.7-.7-.2.85-.9-1.15-.2.8-.8L12-1l1.2-.95-1.15-.1 1-1.25-1.25.45q.25-1.15-.15-1.55l-.85 1-1.05-1.2-.55 1.55Q8.35-4.2 7.8-4.4l-.55 1.9-1.6-1.2-.35 1.8-2-1.55-.4 1.75-1.2-.95v1.35l-1.9-1-.45 1.55-1.8-1.2L-2.7-.5Q-3.65-.75-4-1.6l-.65 1.3-1.05-1.8q-.55.75-.3 1.8l-1.55-1.2q-.25.8.05 1.8-1.25-.2-1.6-.6-.05.5 1.1 1.65l-1.8.3 2.05 1.05q-1.65.8-1.95.7l1.55 1.45-1 1.1 1.4.15-.45 1.3 1.45-1.8.05 1.8.95-2.15.7 2.1-.75-1.2-.8 1.3-.05.15-.35-.75-.85 1.2-.4.7-.6-.15-.3-.75-.55.5.05-.25h-1.45l1.25-1.4-2.55.15 1.5-1.5-2 .1 1.2-1.65-1.9.25.7-1-1.35-.15 1.2-.55-1.25-.8h1.05l-1-.9 1-.15-1.4-1.75h.15l1.2.3.1-1.15-.2-.7.2.05 1.4.75-.1-2.3 1.75 1.05.05-1.75 1.25.15.3-1.15-.05-.3.05-.15 1.6 1.35.45-1.3v-.3q.3.55 1 1.15l.4-1.75v-.25l.4.25 1.2 1.1.35-1.5.2-.7.4.6.85.9.55-1.15.05-.15.45.45.7.35.9-1.35.35 1.35 1.55-1.4.05.15.2.4.6-.05q.4 0 .75-.35l.1.1.45.6.6-.2.8-.5.35.8M-3.6 6.95l1.15-1.8-.3 1.25-.75.5-.1.05" fill="#d9f7fd" fill-rule="evenodd" transform="translate(14.65 8.8)" id="k"/><path d="M-8.85.65h.05l.45.4-1.35 1.9-.25-1.05-1.55 1.05.1-1.4.15-.15.3.95.9-1.35.65.7.55-1.05M1.35-1.5l1.1 1 .4-1.35L4-.85l.1-1.5.95.85.65-1.15 1.05.75.3-.9L8.1-2l.65-.9.85.8.45-.65.65.9.55-.5.05.05.15.8-.05-.15-.45.65-.95-.8-.65.9-1.1-.8L8-.8l-1.15-.75L6.2-.4l-1-.85-.05 1.5-1.25-1Q3.9 0 3.5.6l-1.15-1-.95 1.5-.1-.1-.5-1-.35.4-1-.85.4-.65L.3.1Q1-.55 1.35-1.5" fill="#ff9000" fill-rule="evenodd" transform="translate(11.5 2.9)" id="m"/><path d="m6.65-8.3.35.8.75-.3.85-.6v.05l.2 1.1 1.05-.65.05.2.25.2q.35.15.85 0l.15 1.3.95-.4.05.2.3.25.4.15.1.45q.2.45 1.1.7l-1.5-.1-.05-.8-1.3.75-.6-1.45-1.1 1.2q-.4-1-.3-1.45L7.9-5.3Q6.8-6.35 6.7-6.8q-.55 1.1-1.15 1.4l-.9-1.5q-.4 1.05-.45 1.75Q3.05-6.3 2.9-6.9 2-5.85 2.3-5 .65-5.75.6-6.15l-.5 1.5-.75-1.1q-.5.85-.25 1.6l-1.45-1.5q-.1.85.25 1.45-1.3-.45-1.55-.8.1 1 .4 1.2-1.55-.6-1.7-.9 0 1.25-.35 1.25l-.4-1.3q-.55.8-.35 1.55l-1.3-1.25q.3.9.15 1.85-.8-.35-1.6-.75-.05 1.4.25 1.7l-1.95-.5.45 1.55-2-.35q.65.5.85 1.15l-1.55-.1 1.55 1.3q-.45.75-.95.65l1.35 1.35-1.15.35 1.55.5-.85.95 1.85.3-.6.8 1.5.9q-.65.8-2.15 1.2l-.15.05 1.2-1.4-2.55.15 1.5-1.5-2 .1 1.2-1.65-1.9.25.7-1-1.35-.15 1.2-.55q-.65-.65-1.25-.8H-13l-1-.95 1-.1-1.4-1.75h.15l1.2.3.1-1.15-.2-.7h.2l1.4.75-.1-2.3 1.75 1.05.05-1.7 1.25.15.3-1.15-.05-.3.05-.15 1.6 1.35.45-1.3v-.3l1 1.15.4-1.75v-.25l.4.25 1.2 1.1.35-1.5.2-.7.4.55.85.9.55-1.1.05-.15.5.45.65.3.9-1.3.35 1.35 1.55-1.4.25.5h.6q.35 0 .75-.35l.1.05.45.65.6-.2.8-.5m7.4 3.45-.15.5.05.8h.4l-.1.1h-1.2l1-1.4" fill="#fffffe" fill-rule="evenodd" transform="translate(14.4 8.45)" id="n"/><path d="m-12.15 3.3-1.15.9L-12-.65l-.15 3.95M5.8-.75q.9-.65 3 1.1 2.25 1.9 1.65 3.95-4.1-1.55-9.8-5.9l3.8 1L5.8-.75m4.9-1.85.05 4.4-.9-4.15q-.1-.25.35-.55.45-.3.5.3m.6-1.4.35-.3.9 1.8q.9 2.05.75 3.3l-2-4.8" transform="translate(13.3 4.3)" id="l" fill="#ffe394" fill-rule="evenodd"/><g id="h" fill="#1a171b" fill-rule="evenodd"><path d="M-12.15 13q-.15-2.35.8-5.05l1-2.25 1.25-1q1.8-1 4.4-.7-.2 4.8-7.45 9M9.2.45Q11.8.3 14.5 2.4l1.1 3.05q1 3.35.65 4.8l-2.5-2.6-.75 5.1q-6.3-2.7-10.5-6.1L-.45 3.8l4-1.7Q7.15.55 9.2.45" transform="translate(16.35 12.95)"/><path d="m11.8-12.15.2 1.5q.55-.55 1.55-.5l-.45 1.2 1.2-.1-.45 1 1.55.45-.55 1.15q.5 0 1.3.6l-1.05.8 1.05 1.25-.95.75 1.15 1.5-1 .25.7.75-.95.9q.2.25 1 .45L15.4 1q.4.55.15 1.25l-.9.05.15 1.05-1.45-.55-.55.5-.65-.9-.45.65-.85-.8-.65.9-1.05-.8-.3.9L7.8 2.5l-.65 1.15-.95-.85-.1 1.5-1.15-1-.4 1.35-1.1-1q-.35.95-1.05 1.6l-.45-1.2-.9 1.3L.1 4.5l-1.15 1.05-.35-.95-.7.95-.4-1.05-.65 1.15-.6-.8-.8 1.05-.85-.9-.45 1.55-.9-.8-.55 1.1-.65-.7-.9 1.35-.3-.95-1.2 1.15.15-1.5-1.45.05.25-1.35-1.7.1q.1-1.15.45-1.45l-1.45-.15.9-1.25-1.6-.05.8-1.15-1.65-.75 1.05-.75-1.5-.35.2-.6q.3-.6.9-.55l-1.35-.9 1.7-.2-1.5-1.5 2.5-.05-.8-1.5 2.1-.05.15-2.4 1.6 1.2.3-2.3L-9-8.6q-.15-.75.2-1.35l.4-.5 1.4 1.2-.05-1.85 1.5.9.05-1.55 1.9 1.2q.05-.85.7-1.55l.6-.55.75 1.45 1.05-1.6.65 1.55 1.05-1.6.95 1.15 1.4-1.25.45 1q.15.25.9-.8l.75 1.05q.8-.3 1.3-1.2l.6 1.2q.75-.3 1.1-1.2l.9 1.2 1-.8.2 1.15q.2.15 1.05-.8" transform="translate(16.35 12.95)"/></g></defs></svg>

<?xml version="1.0" encoding="UTF-8" standalone="no"?>
<svg xmlns:xlink="http://www.w3.org/1999/xlink" height="92.9px" width="100.7px" xmlns="http://www.w3.org/2000/svg">
  <g transform="matrix(1.0, 0.0, 0.0, 1.0, 38.65, 49.75)">
    <use height="25.95" transform="matrix(1.0, 0.0, 0.0, 1.0, -18.6, -11.6)" width="32.7" xlink:href="#sprite0"/>
    <use height="9.3" transform="matrix(1.0, 0.0, 0.0, 1.0, -13.5, 3.6)" width="26.7" xlink:href="#sprite1"/>
    <use height="17.55" transform="matrix(1.0, 0.0, 0.0, 1.0, -16.5, -10.2)" width="29.3" xlink:href="#sprite2"/>
    <use height="17.55" transform="matrix(1.0, 0.0, 0.0, 1.0, -16.55, -10.25)" width="29.3" xlink:href="#sprite3"/>
    <use height="8.6" transform="matrix(1.0, 0.0, 0.0, 1.0, -13.5, 4.25)" width="26.6" xlink:href="#sprite4"/>
    <use height="5.85" transform="matrix(1.0, 0.0, 0.0, 1.0, -11.65, 3.6)" width="22.95" xlink:href="#sprite5"/>
    <use height="16.9" transform="matrix(1.0, 0.0, 0.0, 1.0, -16.55, -10.3)" width="28.75" xlink:href="#sprite6"/>
  </g>
  <defs>
    <g id="sprite0" transform="matrix(1.0, 0.0, 0.0, 1.0, 16.35, 12.95)">
      <use height="25.95" transform="matrix(1.0, 0.0, 0.0, 1.0, -16.35, -12.95)" width="32.7" xlink:href="#shape0"/>
    </g>
    <g id="shape0" transform="matrix(1.0, 0.0, 0.0, 1.0, 16.35, 12.95)">
      <path d="M-12.15 13.0 Q-12.3 10.65 -11.35 7.95 L-10.35 5.7 -9.1 4.7 Q-7.3 3.7 -4.7 4.0 -4.9 8.8 -12.15 13.0" fill="#1a171b" fill-rule="evenodd" stroke="none"/>
      <path d="M9.2 0.45 Q11.8 0.3 14.5 2.4 L15.6 5.45 Q16.6 8.8 16.25 10.25 L13.75 7.65 13.0 12.75 Q6.7 10.05 2.5 6.65 L-0.45 3.8 3.55 2.1 Q7.15 0.55 9.2 0.45" fill="#1a171b" fill-rule="evenodd" stroke="none"/>
      <path d="M11.8 -12.15 L12.0 -10.65 Q12.55 -11.2 13.55 -11.15 L13.1 -9.95 14.3 -10.05 13.85 -9.05 15.4 -8.6 14.85 -7.45 Q15.35 -7.45 16.15 -6.85 L15.1 -6.05 16.15 -4.8 15.2 -4.05 16.35 -2.55 15.35 -2.3 16.05 -1.55 15.1 -0.65 Q15.3 -0.4 16.1 -0.2 L15.4 1.0 Q15.8 1.55 15.55 2.25 L14.65 2.3 14.8 3.35 13.35 2.8 12.8 3.3 12.15 2.4 11.7 3.05 10.85 2.25 10.2 3.15 9.15 2.35 8.85 3.25 7.8 2.5 7.15 3.65 6.2 2.8 6.1 4.3 4.95 3.3 4.55 4.65 3.45 3.65 Q3.1 4.6 2.4 5.25 L1.95 4.05 1.05 5.35 0.1 4.5 -1.05 5.55 -1.4 4.6 -2.1 5.55 -2.5 4.5 -3.15 5.65 -3.75 4.85 -4.55 5.9 -5.4 5.0 -5.85 6.55 -6.75 5.75 -7.3 6.85 -7.95 6.15 -8.85 7.5 -9.15 6.55 -10.35 7.7 -10.2 6.2 -11.65 6.25 -11.4 4.9 -13.1 5.0 Q-13.0 3.85 -12.65 3.55 L-14.1 3.4 -13.2 2.15 -14.8 2.1 -14.0 0.95 -15.65 0.2 -14.6 -0.55 -16.1 -0.9 -15.9 -1.5 Q-15.6 -2.1 -15.0 -2.05 L-16.35 -2.95 -14.65 -3.15 -16.15 -4.65 -13.65 -4.7 -14.45 -6.2 -12.35 -6.25 -12.2 -8.65 -10.6 -7.45 -10.3 -9.75 -9.0 -8.6 Q-9.15 -9.35 -8.8 -9.95 L-8.4 -10.45 -7.0 -9.25 -7.05 -11.1 -5.55 -10.2 -5.5 -11.75 -3.6 -10.55 Q-3.55 -11.4 -2.9 -12.1 L-2.3 -12.65 -1.55 -11.2 -0.5 -12.8 0.15 -11.25 1.2 -12.85 2.15 -11.7 3.55 -12.95 4.0 -11.95 Q4.15 -11.7 4.9 -12.75 L5.65 -11.7 Q6.45 -12.0 6.95 -12.9 L7.55 -11.7 Q8.3 -12.0 8.65 -12.9 L9.55 -11.7 10.55 -12.5 10.75 -11.35 Q10.95 -11.2 11.8 -12.15" fill="#1a171b" fill-rule="evenodd" stroke="none"/>
    </g>
    <g id="sprite1" transform="matrix(1.0, 0.0, 0.0, 1.0, 13.35, 4.65)">
      <use height="9.3" transform="matrix(1.0, 0.0, 0.0, 1.0, -13.35, -4.65)" width="26.7" xlink:href="#shape1"/>
    </g>
    <g id="shape1" transform="matrix(1.0, 0.0, 0.0, 1.0, 13.35, 4.65)">
      <path d="M1.35 -3.25 L2.45 -2.25 2.85 -3.6 4.0 -2.6 4.1 -4.1 5.05 -3.25 5.7 -4.4 6.75 -3.65 7.05 -4.55 8.1 -3.75 8.75 -4.65 9.6 -3.85 10.05 -4.5 10.7 -3.6 11.25 -4.1 11.65 -3.95 12.5 -2.1 Q13.2 -0.5 13.35 1.15 L11.45 -0.2 10.9 -3.15 10.9 -2.55 10.75 -3.1 10.8 -0.7 10.75 0.75 10.8 1.05 10.35 4.65 Q3.25 1.45 -0.55 -2.2 L-0.15 -2.85 0.3 -1.65 Q1.0 -2.3 1.35 -3.25 M-8.85 -1.15 L-8.35 -0.7 Q-9.6 1.9 -13.35 4.5 -13.2 2.8 -12.5 0.95 L-12.4 0.8 -11.25 -0.35 -10.95 0.6 -10.05 -0.75 -9.4 -0.05 -8.85 -1.15" fill="#ffb800" fill-rule="evenodd" stroke="none"/>
    </g>
    <g id="sprite2" transform="matrix(1.0, 0.0, 0.0, 1.0, 14.65, 8.8)">
      <use height="17.55" transform="matrix(1.0, 0.0, 0.0, 1.0, -14.65, -8.8)" width="29.3" xlink:href="#shape2"/>
    </g>
    <g id="shape2" transform="matrix(1.0, 0.0, 0.0, 1.0, 14.65, 8.8)">
      <path d="M6.75 -7.85 L7.45 -8.15 Q8.0 -8.4 8.3 -8.75 L8.35 -8.7 8.55 -7.6 9.6 -8.25 9.6 -8.05 9.85 -7.9 10.75 -7.85 10.9 -6.55 11.85 -6.95 11.85 -6.8 12.2 -6.5 12.6 -6.35 12.7 -5.9 Q12.9 -5.45 13.75 -5.2 L13.6 -4.7 13.7 -3.95 14.1 -3.9 13.25 -3.2 14.25 -2.6 14.6 -2.2 13.15 -1.1 14.45 -0.5 14.65 -0.3 14.0 -0.1 14.0 0.55 14.25 1.2 13.85 1.85 13.8 2.3 14.05 2.6 14.45 2.95 14.0 3.8 14.3 4.25 13.9 4.3 13.45 4.8 13.3 4.75 12.8 4.5 12.5 4.75 11.8 3.5 11.15 4.5 10.35 3.8 9.5 4.75 8.9 3.4 8.05 4.6 8.0 4.65 7.15 4.05 6.5 5.05 5.45 4.1 5.0 5.35 4.05 4.5 3.7 5.8 2.85 4.65 2.3 6.05 2.2 6.25 1.55 5.5 0.45 6.8 0.4 6.75 -0.1 6.1 -0.75 6.55 -0.95 6.65 -0.9 5.25 -2.4 6.7 -2.8 6.35 -3.6 6.9 -4.1 6.3 -4.8 7.0 -5.05 7.35 -5.8 6.15 -6.6 7.45 -6.65 7.6 -7.05 6.85 -8.3 8.75 -8.9 8.6 -9.15 7.8 -9.7 8.3 -9.65 8.05 -11.1 8.1 -9.9 6.7 -12.4 6.85 -10.95 5.35 -12.9 5.45 -11.7 3.8 -13.6 4.05 -12.9 3.0 -14.3 2.9 -13.05 2.35 Q-13.75 1.7 -14.3 1.55 L-13.25 1.55 -14.25 0.6 -13.3 0.5 -14.65 -1.3 -14.55 -1.25 -13.3 -0.95 -13.2 -2.1 -13.45 -2.8 -13.2 -2.8 -11.8 -2.05 -11.95 -4.3 -11.95 -4.35 -10.2 -3.3 -10.15 -5.05 -8.85 -4.85 -8.55 -6.0 -8.6 -6.35 -8.55 -6.45 -6.95 -5.1 -6.55 -6.4 -6.5 -6.7 -5.55 -5.55 -5.1 -7.6 -4.7 -7.3 -3.5 -6.2 -3.2 -7.7 -2.95 -8.4 -2.55 -7.85 -1.7 -6.95 -1.2 -8.05 -1.1 -8.2 -0.65 -7.75 0.05 -7.45 0.95 -8.75 1.3 -7.45 2.85 -8.8 3.1 -8.3 3.65 -8.3 Q4.0 -8.3 4.45 -8.65 L4.5 -8.6 4.95 -7.95 5.55 -8.15 Q6.1 -8.35 6.35 -8.65 L6.75 -7.85" fill="#b3effc" fill-rule="evenodd" stroke="none"/>
    </g>
    <g id="sprite3" transform="matrix(1.0, 0.0, 0.0, 1.0, 14.65, 8.8)">
      <use height="17.55" transform="matrix(1.0, 0.0, 0.0, 1.0, -14.65, -8.8)" width="29.3" xlink:href="#shape3"/>
    </g>
    <g id="shape3" transform="matrix(1.0, 0.0, 0.0, 1.0, 14.65, 8.8)">
      <path d="M-4.45 5.6 L-3.95 5.0 -3.6 6.95 -4.05 6.3 -5.05 7.35 Q-5.0 6.35 -4.45 5.6 M6.75 -7.85 L7.5 -8.15 8.35 -8.75 8.35 -8.7 8.55 -7.55 9.6 -8.2 9.65 -8.05 9.9 -7.85 Q10.2 -7.65 10.75 -7.85 L10.9 -6.55 11.85 -6.9 11.9 -6.75 12.2 -6.5 Q12.25 -6.45 12.6 -6.35 L12.7 -5.9 Q12.9 -5.45 13.8 -5.2 L13.65 -4.7 13.7 -3.9 14.1 -3.85 13.25 -3.2 14.25 -2.55 14.6 -2.2 13.2 -1.05 14.45 -0.5 14.65 -0.3 14.5 -0.25 14.05 -0.05 14.05 0.6 14.3 1.2 13.9 1.85 13.85 2.3 14.05 2.6 14.5 3.0 14.0 3.85 14.3 4.25 13.9 4.3 13.45 4.8 12.8 4.55 12.65 4.45 12.55 3.35 13.65 3.8 Q13.25 2.7 12.8 2.6 L13.45 1.9 12.75 1.7 13.6 0.8 12.45 0.6 13.25 -0.2 12.0 -1.0 13.2 -1.95 12.05 -2.05 13.05 -3.3 11.8 -2.85 Q12.05 -4.0 11.65 -4.4 L10.8 -3.4 9.75 -4.6 9.2 -3.05 Q8.35 -4.2 7.8 -4.4 L7.25 -2.5 5.65 -3.7 5.3 -1.9 3.3 -3.45 2.9 -1.7 1.7 -2.65 1.7 -1.3 -0.2 -2.3 -0.65 -0.75 -2.45 -1.95 -2.7 -0.5 Q-3.65 -0.75 -4.0 -1.6 L-4.65 -0.3 -5.7 -2.1 Q-6.25 -1.35 -6.0 -0.3 L-7.55 -1.5 Q-7.8 -0.7 -7.5 0.3 -8.75 0.1 -9.1 -0.3 -9.15 0.2 -8.0 1.35 L-9.8 1.65 -7.75 2.7 Q-9.4 3.5 -9.7 3.4 L-8.15 4.85 -9.15 5.95 -7.75 6.1 -8.2 7.4 -6.75 5.6 -6.7 7.4 -5.75 5.25 -5.05 7.35 -5.8 6.15 -6.6 7.45 -6.65 7.6 -7.0 6.85 -7.85 8.05 -8.25 8.75 -8.85 8.6 -9.15 7.85 -9.7 8.35 -9.65 8.1 -11.1 8.1 -9.85 6.7 -12.4 6.85 -10.9 5.35 -12.9 5.45 -11.7 3.8 -13.6 4.05 -12.9 3.05 -14.25 2.9 -13.05 2.35 -14.3 1.55 -13.25 1.55 -14.25 0.65 -13.25 0.5 -14.65 -1.25 -14.5 -1.25 -13.3 -0.95 -13.2 -2.1 -13.4 -2.8 -13.2 -2.75 -11.8 -2.0 -11.9 -4.3 -10.15 -3.25 -10.1 -5.0 -8.85 -4.85 -8.55 -6.0 -8.6 -6.3 -8.55 -6.45 -6.95 -5.1 -6.5 -6.4 -6.5 -6.7 Q-6.2 -6.15 -5.5 -5.55 L-5.1 -7.3 -5.1 -7.55 -4.7 -7.3 -3.5 -6.2 -3.15 -7.7 -2.95 -8.4 -2.55 -7.8 -1.7 -6.9 -1.15 -8.05 -1.1 -8.2 -0.65 -7.75 0.05 -7.4 0.95 -8.75 1.3 -7.4 2.85 -8.8 2.9 -8.65 3.1 -8.25 3.7 -8.3 Q4.1 -8.3 4.45 -8.65 L4.55 -8.55 5.0 -7.95 5.6 -8.15 6.4 -8.65 6.75 -7.85 M-3.6 6.95 L-2.45 5.15 -2.75 6.4 -3.5 6.9 -3.6 6.95" fill="#d9f7fd" fill-rule="evenodd" stroke="none"/>
    </g>
    <g id="sprite4" transform="matrix(1.0, 0.0, 0.0, 1.0, 13.3, 4.3)">
      <use height="8.6" transform="matrix(1.0, 0.0, 0.0, 1.0, -13.3, -4.3)" width="26.6" xlink:href="#shape4"/>
    </g>
    <g id="shape4" transform="matrix(1.0, 0.0, 0.0, 1.0, 13.3, 4.3)">
      <path d="M-12.15 3.3 L-13.3 4.2 -12.0 -0.65 -12.15 3.3" fill="#ffe394" fill-rule="evenodd" stroke="none"/>
      <path d="M5.8 -0.75 Q6.7 -1.4 8.8 0.35 11.05 2.25 10.45 4.3 6.35 2.75 0.65 -1.6 L4.45 -0.6 5.8 -0.75" fill="#ffe394" fill-rule="evenodd" stroke="none"/>
      <path d="M10.7 -2.6 L10.75 1.8 9.85 -2.35 Q9.75 -2.6 10.2 -2.9 10.65 -3.2 10.7 -2.6" fill="#ffe394" fill-rule="evenodd" stroke="none"/>
      <path d="M11.3 -4.0 L11.65 -4.3 12.55 -2.5 Q13.45 -0.45 13.3 0.8 L11.3 -4.0" fill="#ffe394" fill-rule="evenodd" stroke="none"/>
    </g>
    <g id="sprite5" transform="matrix(1.0, 0.0, 0.0, 1.0, 11.5, 2.9)">
      <use height="5.85" transform="matrix(1.0, 0.0, 0.0, 1.0, -11.5, -2.9)" width="22.95" xlink:href="#shape5"/>
    </g>
    <g id="shape5" transform="matrix(1.0, 0.0, 0.0, 1.0, 11.5, 2.9)">
      <path d="M-8.85 0.65 L-8.8 0.65 -8.35 1.05 -9.7 2.95 -9.95 1.9 -11.5 2.95 -11.4 1.55 -11.25 1.4 -10.95 2.35 -10.05 1.0 -9.4 1.7 -8.85 0.65 M1.35 -1.5 L2.45 -0.5 2.85 -1.85 4.0 -0.85 4.1 -2.35 5.05 -1.5 5.7 -2.65 6.75 -1.9 7.05 -2.8 8.1 -2.0 8.75 -2.9 9.6 -2.1 10.05 -2.75 10.7 -1.85 11.25 -2.35 11.3 -2.3 11.45 -1.5 11.4 -1.65 10.95 -1.0 10.0 -1.8 9.35 -0.9 8.25 -1.7 8.0 -0.8 6.85 -1.55 6.2 -0.4 5.2 -1.25 5.15 0.25 3.9 -0.75 Q3.9 0.0 3.5 0.6 L2.35 -0.4 1.4 1.1 1.3 1.0 0.8 0.0 0.45 0.4 -0.55 -0.45 -0.15 -1.1 0.3 0.1 Q1.0 -0.55 1.35 -1.5" fill="#ff9000" fill-rule="evenodd" stroke="none"/>
    </g>
    <g id="sprite6" transform="matrix(1.0, 0.0, 0.0, 1.0, 14.4, 8.45)">
      <use height="16.9" transform="matrix(1.0, 0.0, 0.0, 1.0, -14.4, -8.45)" width="28.75" xlink:href="#shape6"/>
    </g>
    <g id="shape6" transform="matrix(1.0, 0.0, 0.0, 1.0, 14.4, 8.45)">
      <path d="M6.65 -8.3 L7.0 -7.5 7.75 -7.8 8.6 -8.4 8.6 -8.35 8.8 -7.25 9.85 -7.9 9.9 -7.7 10.15 -7.5 Q10.5 -7.35 11.0 -7.5 L11.15 -6.2 12.1 -6.6 12.15 -6.4 12.45 -6.15 12.85 -6.0 12.95 -5.55 Q13.15 -5.1 14.05 -4.85 L12.55 -4.95 12.5 -5.75 11.2 -5.0 10.6 -6.45 9.5 -5.25 Q9.1 -6.25 9.2 -6.7 L7.9 -5.3 Q6.8 -6.35 6.7 -6.8 6.15 -5.7 5.55 -5.4 L4.65 -6.9 Q4.25 -5.85 4.2 -5.15 3.05 -6.3 2.9 -6.9 2.0 -5.85 2.3 -5.0 0.65 -5.75 0.6 -6.15 L0.1 -4.65 -0.65 -5.75 Q-1.15 -4.9 -0.9 -4.15 L-2.35 -5.65 Q-2.45 -4.8 -2.1 -4.2 -3.4 -4.65 -3.65 -5.0 -3.55 -4.0 -3.25 -3.8 -4.8 -4.4 -4.95 -4.7 -4.95 -3.45 -5.3 -3.45 L-5.7 -4.75 Q-6.25 -3.95 -6.05 -3.2 L-7.35 -4.45 Q-7.05 -3.55 -7.2 -2.6 -8.0 -2.95 -8.8 -3.35 -8.85 -1.95 -8.55 -1.65 L-10.5 -2.15 -10.05 -0.6 -12.05 -0.95 Q-11.4 -0.45 -11.2 0.2 L-12.75 0.1 -11.2 1.4 Q-11.65 2.15 -12.15 2.05 L-10.8 3.4 -11.95 3.75 -10.4 4.25 -11.25 5.2 -9.4 5.5 -10.0 6.3 -8.5 7.2 Q-9.15 8.0 -10.65 8.4 L-10.8 8.45 -9.6 7.05 -12.15 7.2 -10.65 5.7 -12.65 5.8 -11.45 4.15 -13.35 4.4 -12.65 3.4 -14.0 3.25 -12.8 2.7 Q-13.45 2.05 -14.05 1.9 L-13.0 1.9 -14.0 0.95 -13.0 0.85 -14.4 -0.9 -14.25 -0.9 -13.05 -0.6 -12.95 -1.75 -13.15 -2.45 -12.95 -2.45 -11.55 -1.7 -11.65 -4.0 -9.9 -2.95 -9.85 -4.65 -8.6 -4.5 -8.3 -5.65 -8.35 -5.95 -8.3 -6.1 -6.7 -4.75 -6.25 -6.05 -6.25 -6.35 -5.25 -5.2 -4.85 -6.95 -4.85 -7.2 -4.45 -6.95 -3.25 -5.85 -2.9 -7.35 -2.7 -8.05 -2.3 -7.5 -1.45 -6.6 -0.9 -7.7 -0.85 -7.85 -0.35 -7.4 0.3 -7.1 1.2 -8.4 1.55 -7.05 3.1 -8.45 3.35 -7.95 3.95 -7.95 Q4.3 -7.95 4.7 -8.3 L4.8 -8.25 5.25 -7.6 5.85 -7.8 6.65 -8.3 M14.05 -4.85 L13.9 -4.35 13.95 -3.55 14.35 -3.55 14.25 -3.45 13.05 -3.45 14.05 -4.85" fill="#fffffe" fill-rule="evenodd" stroke="none"/>
    </g>
  </defs>
</svg>
